X:0011
T:The Corporal.
M:2/4
L:1/8
Q:1/4=132
I: :: ::
%% G  A  B ^c  d  e ^f  g  a
Z:Jack Campin * www.campin.me.uk * 2009
K:A Mixolydian
B|cAAc|edeg|BGBG|BGGB|cAAc|edea|gedB|A2A:|
g|aeeg|aeef|gddB|gddg|aeeg|aeed|cABc|A2A:|
<end>
<start>
